icons/svg/share-screen-active_24.svg

<svg width="24" height="24" xmlns="http://www.w3.org/2000/svg"><path d="M5 8v5.5c0 2 1.5 3.5 3.5 3.5H18v2.5c0 1.4-1.1 2.5-2.5 2.5h-13C1.1 22 0 20.9 0 19.5v-9C0 9.1 1.1 8 2.5 8H5zm16.5-6C22.9 2 24 3.1 24 4.5v9c0 1.4-1.1 2.5-2.5 2.5h-13C7.1 16 6 14.9 6 13.5v-9C6 3.1 7.1 2 8.5 2z" fill="#171B1F" fill-rule="evenodd"/></svg>

<?xml version="1.0" encoding="UTF-8"?>
<svg width="24px" height="24px" viewBox="0 0 24 24" version="1.1" xmlns="http://www.w3.org/2000/svg" xmlns:xlink="http://www.w3.org/1999/xlink">
    <!-- Generator: Sketch 59.1 (86144) - https://sketch.com -->
    <title>share-screen-active_24</title>
    <desc>Created with Sketch.</desc>
    <g id="Icons-Webex" stroke="none" stroke-width="1" fill="none" fill-rule="evenodd">
        <g id="activities/share-screen-active_24" fill="#171B1F">
            <path d="M5,8 L5,13.5 C5,15.5 6.5,17 8.5,17 L8.5,17 L18,17 L18,19.5 C18,20.9 16.9,22 15.5,22 L15.5,22 L2.5,22 C1.1,22 6.00963723e-13,20.9 6.00963723e-13,19.5 L6.00963723e-13,19.5 L6.00963723e-13,10.5 C6.00963723e-13,9.1 1.1,8 2.5,8 L2.5,8 L5,8 Z M21.5,2 C22.9,2 24,3.1 24,4.5 L24,4.5 L24,13.5 C24,14.9 22.9,16 21.5,16 L21.5,16 L8.5,16 C7.1,16 6,14.9 6,13.5 L6,13.5 L6,4.5 C6,3.1 7.1,2 8.5,2 L8.5,2 Z" id="fill"></path>
        </g>
    </g>
</svg>
